_src/static/img/icon/time-blue.svg

<svg width="22" height="22" viewBox="0 0 22 22" fill="none" xmlns="http://www.w3.org/2000/svg">
<path d="M11 0.85C8.99252 0.85 7.03012 1.44529 5.36097 2.56058C3.69181 3.67588 2.39086 5.26109 1.62263 7.11576C0.854398 8.97043 0.653394 11.0113 1.04503 12.9802C1.43667 14.9491 2.40337 16.7576 3.82287 18.1771C5.24237 19.5966 7.05093 20.5633 9.01984 20.955C10.9887 21.3466 13.0296 21.1456 14.8842 20.3774C16.7389 19.6091 18.3241 18.3082 19.4394 16.639C20.5547 14.9699 21.15 13.0075 21.15 11C21.15 8.30805 20.0806 5.72636 18.1771 3.82287C16.2736 1.91937 13.6919 0.85 11 0.85ZM10.9996 19.8399C9.25136 19.8398 7.54242 19.3214 6.08882 18.3501C4.6351 17.3788 3.50207 15.9982 2.833 14.3829C2.16393 12.7676 1.98887 10.9902 2.32996 9.27542C2.67105 7.56065 3.51297 5.98553 4.74925 4.74925C5.98553 3.51296 7.56065 2.67105 9.27542 2.32996C10.9902 1.98887 12.7676 2.16393 14.3829 2.833C15.9982 3.50207 17.3788 4.6351 18.3501 6.08881C19.3214 7.54241 19.8398 9.25136 19.8399 10.9996C19.8333 13.3422 18.8999 15.5869 17.2434 17.2434C15.5869 18.8998 13.3422 19.8333 10.9996 19.8399Z" fill="#1B3ACD" stroke="#1B3ACD" stroke-width="0.3"/>
<path d="M13.701 13.0853L13.7014 13.0849L13.6913 13.0772L11.0742 11.1021V6.02525C11.0742 5.85152 11.0051 5.68491 10.8823 5.56206C10.7595 5.43922 10.5928 5.3702 10.4191 5.3702C10.2454 5.3702 10.0788 5.43922 9.95592 5.56206C9.83308 5.68491 9.76406 5.85152 9.76406 6.02525V11.4293H9.76402L9.7641 11.4328C9.76648 11.533 9.79094 11.6314 9.83574 11.721C9.88054 11.8106 9.94457 11.8892 10.0233 11.9512L10.0232 11.9512L10.0257 11.9531L12.9 14.1214C12.9551 14.1694 13.0192 14.206 13.0885 14.2291L13.136 14.0868L13.0885 14.2291C13.1585 14.2524 13.2324 14.2615 13.3059 14.2559C13.4045 14.2529 13.5013 14.2285 13.5896 14.1844C13.6792 14.1396 13.7578 14.0756 13.8198 13.9969L13.8249 13.9903L13.8293 13.9832C13.9169 13.8424 13.9521 13.6751 13.9286 13.5109C13.9052 13.3467 13.8246 13.196 13.701 13.0853Z" fill="#1B3ACD" stroke="#1B3ACD" stroke-width="0.3"/>
</svg>

<svg width="22" height="22" fill="none" xmlns="http://www.w3.org/2000/svg"><path d="M11 .85a10.15 10.15 0 100 20.3 10.15 10.15 0 000-20.3zm0 18.99A8.84 8.84 0 1119.84 11 8.865 8.865 0 0111 19.84z" fill="#1B3ACD" stroke="#1B3ACD" stroke-width=".3"/><path d="M13.701 13.085h0l-.01-.008-2.617-1.975V6.025a.655.655 0 00-1.31 0v5.404h0v.004a.68.68 0 00.26.518h0l.002.002 2.874 2.168c.055.048.12.085.188.108l.048-.142-.047.142a.55.55 0 00.217.027.681.681 0 00.514-.26l.005-.006.004-.007a.705.705 0 00-.128-.898z" fill="#1B3ACD" stroke="#1B3ACD" stroke-width=".3"/></svg>
